X: 15
T: Lady Howards Waltz
%C: Mr. Gray
%R: waltz
B: Mr. Gray "24 Country Dances for the Year 1803" p.8 #1
S: http://imslp.org/wiki/24_Country_Dances_for_the_Year_1803_(Various)  2013-12-2
Z: 2013 John Chambers <jc:trillian.mit.edu>
M: 3/8
L: 1/16
K: G
d2 |\
(d2B2).d2 | (d2B2).d2 | g2(fg).a.f | d4 d2 |\
e2c2a2 | f2defd | g2g2g2 | g4 :|
|: d2 |\
c2A2F2 | G2B2d2 | e2e2e2 | f4d2 |\
g2(fg).a.f | g2G2B2 | c2A2F2 | G4 :|
% - - - - - - - - - - - - - - - - - - - - - - - - -
%%begintext align
%% Turn 3 with the 1st Lady the same with the
%% 1st Gen: lead down the middle up again &
%% Pousette.
%%endtext
